svg/fluentui-system-icons/ic_fluent_arrow_circle_up_left_24_filled.svg

<svg width="24" height="24" viewBox="0 0 24 24" fill="none" xmlns="http://www.w3.org/2000/svg">
<path d="M12 22C17.5228 22 22 17.5228 22 12C22 6.47715 17.5228 2 12 2C6.47715 2 2 6.47715 2 12C2 17.5228 6.47715 22 12 22ZM15.25 9.49993H10.5095L15.7777 14.7171C16.072 15.0086 16.0743 15.4834 15.7828 15.7777C15.4914 16.0721 15.0165 16.0744 14.7222 15.7829L9.5 10.6113V15.2499C9.5 15.6641 9.16421 15.9999 8.75 15.9999C8.33579 15.9999 8 15.6641 8 15.2499V8.74993C8 8.33572 8.33579 7.99993 8.75 7.99993H15.25C15.6642 7.99993 16 8.33572 16 8.74993C16 9.16415 15.6642 9.49993 15.25 9.49993Z" fill="#212121"/>
</svg>

<svg xmlns="http://www.w3.org/2000/svg" width="24" height="24"><path d="M12 22c5.523 0 10-4.477 10-10S17.523 2 12 2 2 6.477 2 12s4.477 10 10 10Zm3.25-12.5h-4.74l5.268 5.217a.75.75 0 1 1-1.056 1.066L9.5 10.61v4.639a.75.75 0 0 1-1.5 0v-6.5A.75.75 0 0 1 8.75 8h6.5a.75.75 0 0 1 0 1.5Z"/></svg>
